public/images/streaming-logos/funimation.svg

<svg viewBox="0 0 50 50" version="1.1" xmlns="http://www.w3.org/2000/svg" xmlns:xlink="http://www.w3.org/1999/xlink">
    <g stroke="none" stroke-width="1" fill="none" fill-rule="evenodd">
        <g fill="#411299">
            <g>
                <path d="M24.0655296,0.0170556553 C28.6912029,-0.156193896 33.3572711,0.991023339 37.3680431,3.30341113 C40.440754,5.06373429 43.1274686,7.49102334 45.2010772,10.3608618 C47.2603232,13.2073609 48.7073609,16.4937163 49.4084381,19.9362657 C50.2271095,23.9371634 50.0493716,28.1373429 48.8895871,32.0529623 C47.9129264,35.3491921 46.2441652,38.4389587 44.021544,41.061939 C41.8895871,43.5807899 39.2603232,45.6822262 36.3177738,47.1795332 C33.061939,48.8581688 29.4263914,49.7881508 25.7657092,49.8976661 C21.6552962,50.037702 17.5098743,49.1481149 13.8330341,47.3007181 C8.01795332,44.4290844 3.42549372,39.1938959 1.3438061,33.0502693 C-0.818671454,26.7935368 -0.354578097,19.6759425 2.64631957,13.7710952 C5.48294434,8.06912029 10.5942549,3.54937163 16.6023339,1.43536804 C18.997307,0.583482944 21.5251346,0.106822262 24.0655296,0.0170556553 L24.0655296,0.0170556553 Z M15.6508079,33.3276481 C16.1149013,35.6113106 17.5897666,37.6849192 19.6418312,38.8070018 C21.8150808,40.024237 24.4057451,40.2513465 26.8429084,39.9883303 C28.8447038,39.7710952 30.8294434,38.9955117 32.2980251,37.5906643 C33.4712747,36.4398564 34.3150808,34.9425494 34.6274686,33.3240575 C33.4389587,33.2971275 32.2504488,33.3240575 31.061939,33.2935368 C30.4937163,33.3761221 29.9245961,33.2459605 29.3572711,33.3078995 C28.1247756,33.3204668 26.8922801,33.3114901 25.6597846,33.2989228 C25.005386,33.3644524 24.3509874,33.2630162 23.6965889,33.3114901 C22.5305206,33.2576302 21.3626571,33.3536804 20.1965889,33.2863555 C18.6822262,33.3653501 17.1660682,33.2513465 15.6508079,33.3276481 L15.6508079,33.3276481 Z" id="Shape"></path>
            </g>
        </g>
    </g>
</svg>

<svg xmlns="http://www.w3.org/2000/svg" viewBox="0 0 50 50"><path fill="#411299" fill-rule="evenodd" d="M24.07.02A24.92 24.92 0 0 1 49.4 19.94 24.95 24.95 0 0 1 25.77 49.9c-4.11.14-8.26-.75-11.94-2.6A25.04 25.04 0 0 1 1.34 33.05a25.02 25.02 0 0 1 1.3-19.28A25.05 25.05 0 0 1 24.08.02zm-8.42 33.3a8.15 8.15 0 0 0 4 5.49c2.17 1.21 4.76 1.44 7.2 1.18 2-.22 3.98-1 5.45-2.4a8.22 8.22 0 0 0 2.33-4.27c-1.2-.02-2.38 0-3.57-.03-.57.09-1.14-.04-1.7.02-1.24.01-2.47 0-3.7-.01-.65.06-1.3-.04-1.96.01-1.17-.05-2.34.04-3.5-.02-1.52.08-3.03-.04-4.55.04z"/></svg>
